X: 26656
T: Midnight Court, The
R: jig
M: 6/8
K: Dminor
|:DA,D FED|DFA GFG|Afe dcA|GEC ~F3|
DA,D FED|DFA GFG|Adc AGE|FDC ~D3:|
|:fAA gAA|aba gfe|fAA gfe|c=Bc ege|
fAAgAA|aba gfe|fgf edc|GEC ~D3:|

